icons/svg/poi_colored/cairn.svg

<?xml version="1.0" encoding="UTF-8" standalone="no"?>
<!-- Created with Inkscape (http://www.inkscape.org/) -->

<svg
   xmlns:dc="http://purl.org/dc/elements/1.1/"
   xmlns:cc="http://creativecommons.org/ns#"
   xmlns:rdf="http://www.w3.org/1999/02/22-rdf-syntax-ns#"
   xmlns:svg="http://www.w3.org/2000/svg"
   xmlns="http://www.w3.org/2000/svg"
   xmlns:sodipodi="http://sodipodi.sourceforge.net/DTD/sodipodi-0.dtd"
   xmlns:inkscape="http://www.inkscape.org/namespaces/inkscape"
   version="1.0"
   width="580"
   height="580"
   id="svg2"
   sodipodi:version="0.32"
   inkscape:version="0.91 r"
   sodipodi:docname="cairn.svg"
   inkscape:output_extension="org.inkscape.output.svg.inkscape">
  <metadata
     id="metadata2975">
    <rdf:RDF>
      <cc:Work
         rdf:about="">
        <dc:format>image/svg+xml</dc:format>
        <dc:type
           rdf:resource="http://purl.org/dc/dcmitype/StillImage" />
        <cc:license
           rdf:resource="http://web.resource.org/cc/PublicDomain" />
        <dc:language>en</dc:language>
        <dc:title></dc:title>
      </cc:Work>
    </rdf:RDF>
  </metadata>
  <sodipodi:namedview
     inkscape:window-height="1004"
     inkscape:window-width="1920"
     inkscape:pageshadow="2"
     inkscape:pageopacity="0.0"
     guidetolerance="10.0"
     gridtolerance="10.0"
     objecttolerance="10.0"
     borderopacity="1.0"
     bordercolor="#666666"
     pagecolor="#ffffff"
     id="base"
     inkscape:zoom="0.3179786"
     inkscape:cx="328.65834"
     inkscape:cy="292.88207"
     inkscape:window-x="1680"
     inkscape:window-y="0"
     inkscape:current-layer="svg2"
     showgrid="false"
     inkscape:window-maximized="1" />
  <defs
     id="defs4">
    <inkscape:perspective
       sodipodi:type="inkscape:persp3d"
       inkscape:vp_x="0 : 290 : 1"
       inkscape:vp_y="0 : 1000 : 0"
       inkscape:vp_z="580 : 290 : 1"
       inkscape:persp3d-origin="290 : 193.33333 : 1"
       id="perspective2441" />
    <inkscape:perspective
       id="perspective3452"
       inkscape:persp3d-origin="30 : 20 : 1"
       inkscape:vp_z="60 : 30 : 1"
       inkscape:vp_y="0 : 1000 : 0"
       inkscape:vp_x="0 : 30 : 1"
       sodipodi:type="inkscape:persp3d" />
    <symbol
       viewBox="244.5 110 489 219.9"
       id="symbol-university">
      <path
         id="path4460"
         d="M79,43l57,119c0,0,21-96,104-96s124,106,124,106l43-133l82-17L0,17L79,43z" />
      <path
         id="path4462"
         d="M94,176l-21,39"
         stroke-width="20"
         stroke="#000000"
         fill="none" />
      <path
         id="path4464"
         d="M300,19c0,10.5-22.6,19-50.5,19S199,29.5,199,19s22.6-19,50.5-19S300,8.5,300,19z" />
      <path
         id="path4466"
         d="M112,216l-16-38L64,88c0,0-9-8-4-35s16-24,16-24"
         stroke-width="20"
         stroke="#000000"
         ill="none" />
    </symbol>
    <inkscape:perspective
       id="perspective4471"
       inkscape:persp3d-origin="372.04724 : 350.78739 : 1"
       inkscape:vp_z="744.09448 : 526.18109 : 1"
       inkscape:vp_y="0 : 1000 : 0"
       inkscape:vp_x="0 : 526.18109 : 1"
       sodipodi:type="inkscape:persp3d" />
    <inkscape:perspective
       id="perspective4668"
       inkscape:persp3d-origin="6 : 4 : 1"
       inkscape:vp_z="12 : 6 : 1"
       inkscape:vp_y="0 : 1000 : 0"
       inkscape:vp_x="0 : 6 : 1"
       sodipodi:type="inkscape:persp3d" />
    <inkscape:perspective
       id="perspective4904"
       inkscape:persp3d-origin="16 : 10.666667 : 1"
       inkscape:vp_z="32 : 16 : 1"
       inkscape:vp_y="0 : 1000 : 0"
       inkscape:vp_x="0 : 16 : 1"
       sodipodi:type="inkscape:persp3d" />
    <marker
       style="overflow:visible;"
       id="Arrow2Lend"
       refX="0.0"
       refY="0.0"
       orient="auto"
       inkscape:stockid="Arrow2Lend">
      <path
         transform="scale(1.1) rotate(180) translate(1,0)"
         d="M 8.7185878,4.0337352 L -2.2072895,0.016013256 L 8.7185884,-4.0017078 C 6.9730900,-1.6296469 6.9831476,1.6157441 8.7185878,4.0337352 z "
         style="font-size:12.0;fill-rule:evenodd;stroke-width:0.62500000;stroke-linejoin:round;"
         id="path4137" />
    </marker>
    <marker
       style="overflow:visible;"
       id="Arrow1Mend"
       refX="0.0"
       refY="0.0"
       orient="auto"
       inkscape:stockid="Arrow1Mend">
      <path
         transform="scale(0.4) rotate(180) translate(10,0)"
         style="fill-rule:evenodd;stroke:#000000;stroke-width:1.0pt;marker-start:none;"
         d="M 0.0,0.0 L 5.0,-5.0 L -12.5,0.0 L 5.0,5.0 L 0.0,0.0 z "
         id="path4125" />
    </marker>
    <marker
       style="overflow:visible"
       id="TriangleOutL"
       refX="0.0"
       refY="0.0"
       orient="auto"
       inkscape:stockid="TriangleOutL">
      <path
         transform="scale(0.8)"
         style="fill-rule:evenodd;stroke:#000000;stroke-width:1.0pt;marker-start:none"
         d="M 5.77,0.0 L -2.88,5.0 L -2.88,-5.0 L 5.77,0.0 z "
         id="path4214" />
    </marker>
    <marker
       style="overflow:visible;"
       id="Arrow1Lend"
       refX="0.0"
       refY="0.0"
       orient="auto"
       inkscape:stockid="Arrow1Lend">
      <path
         transform="scale(0.8) rotate(180) translate(12.5,0)"
         style="fill-rule:evenodd;stroke:#000000;stroke-width:1.0pt;marker-start:none;"
         d="M 0.0,0.0 L 5.0,-5.0 L -12.5,0.0 L 5.0,5.0 L 0.0,0.0 z "
         id="path4119" />
    </marker>
    <marker
       style="overflow:visible"
       id="Tail"
       refX="0.0"
       refY="0.0"
       orient="auto"
       inkscape:stockid="Tail">
      <g
         transform="scale(-1.2)"
         id="g4152">
        <path
           style="fill:none;fill-rule:evenodd;stroke:#000000;stroke-width:0.8;marker-start:none;marker-end:none;stroke-linecap:round"
           d="M -3.8048674,-3.9585227 L 0.54352094,0"
           id="path4154" />
        <path
           style="fill:none;fill-rule:evenodd;stroke:#000000;stroke-width:0.8;marker-start:none;marker-end:none;stroke-linecap:round"
           d="M -1.2866832,-3.9585227 L 3.0617053,0"
           id="path4156" />
        <path
           style="fill:none;fill-rule:evenodd;stroke:#000000;stroke-width:0.8;marker-start:none;marker-end:none;stroke-linecap:round"
           d="M 1.3053582,-3.9585227 L 5.6537466,0"
           id="path4158" />
        <path
           style="fill:none;fill-rule:evenodd;stroke:#000000;stroke-width:0.8;marker-start:none;marker-end:none;stroke-linecap:round"
           d="M -3.8048674,4.1775838 L 0.54352094,0.21974226"
           id="path4160" />
        <path
           style="fill:none;fill-rule:evenodd;stroke:#000000;stroke-width:0.8;marker-start:none;marker-end:none;stroke-linecap:round"
           d="M -1.2866832,4.1775838 L 3.0617053,0.21974226"
           id="path4162" />
        <path
           style="fill:none;fill-rule:evenodd;stroke:#000000;stroke-width:0.8;marker-start:none;marker-end:none;stroke-linecap:round"
           d="M 1.3053582,4.1775838 L 5.6537466,0.21974226"
           id="path4164" />
      </g>
    </marker>
    <marker
       style="overflow:visible"
       id="Arrow1Sstart"
       refX="0.0"
       refY="0.0"
       orient="auto"
       inkscape:stockid="Arrow1Sstart">
      <path
         transform="scale(0.2) translate(6,0)"
         style="fill-rule:evenodd;stroke:#000000;stroke-width:1.0pt;marker-start:none"
         d="M 0.0,0.0 L 5.0,-5.0 L -12.5,0.0 L 5.0,5.0 L 0.0,0.0 z "
         id="path4128" />
    </marker>
    <marker
       style="overflow:visible;"
       id="Arrow1Send"
       refX="0.0"
       refY="0.0"
       orient="auto"
       inkscape:stockid="Arrow1Send">
      <path
         transform="scale(0.2) rotate(180) translate(6,0)"
         style="fill-rule:evenodd;stroke:#000000;stroke-width:1.0pt;marker-start:none;"
         d="M 0.0,0.0 L 5.0,-5.0 L -12.5,0.0 L 5.0,5.0 L 0.0,0.0 z "
         id="path4131" />
    </marker>
    <marker
       style="overflow:visible"
       id="SemiCircleOut"
       refX="0.0"
       refY="0.0"
       orient="auto"
       inkscape:stockid="SemiCircleOut">
      <path
         transform="scale(0.6) translate(7.125493,0.763446)"
         style="fill-rule:evenodd;stroke:#000000;stroke-width:1.0pt;marker-start:none;marker-end:none"
         d="M -2.5,-0.80913858 C -2.5,1.9508614 -4.7400000,4.1908614 -7.5,4.1908614 L -7.5,-5.8091386 C -4.7400000,-5.8091386 -2.5,-3.5691386 -2.5,-0.80913858 z "
         id="path4235" />
    </marker>
    <marker
       style="overflow:visible;"
       id="Arrow2Send"
       refX="0.0"
       refY="0.0"
       orient="auto"
       inkscape:stockid="Arrow2Send">
      <path
         transform="scale(0.3) rotate(180) translate(-2.3,0)"
         d="M 8.7185878,4.0337352 L -2.2072895,0.016013256 L 8.7185884,-4.0017078 C 6.9730900,-1.6296469 6.9831476,1.6157441 8.7185878,4.0337352 z "
         style="font-size:12.0;fill-rule:evenodd;stroke-width:0.62500000;stroke-linejoin:round;"
         id="path4149" />
    </marker>
    <marker
       style="overflow:visible"
       id="TriangleOutS"
       refX="0.0"
       refY="0.0"
       orient="auto"
       inkscape:stockid="TriangleOutS">
      <path
         transform="scale(0.2)"
         style="fill-rule:evenodd;stroke:#000000;stroke-width:1.0pt;marker-start:none"
         d="M 5.77,0.0 L -2.88,5.0 L -2.88,-5.0 L 5.77,0.0 z "
         id="path4220" />
    </marker>
    <marker
       style="overflow:visible"
       id="CurveIn"
       refX="0.0"
       refY="0.0"
       orient="auto"
       inkscape:stockid="CurveIn">
      <path
         transform="scale(0.6)"
         style="fill-rule:evenodd;stroke:#000000;stroke-width:1.0pt;marker-start:none;marker-end:none;fill:none"
         d="M 4.6254930,-5.0456926 C 1.8654930,-5.0456926 -0.37450702,-2.8056926 -0.37450702,-0.045692580 C -0.37450702,2.7143074 1.8654930,4.9543074 4.6254930,4.9543074"
         id="path4238" />
    </marker>
    <marker
       orient="auto"
       refY="0"
       refX="0"
       id="InfiniteLineStart"
       inkscape:stockid="InfiniteLineStart"
       style="overflow:visible">
      <g
         transform="translate(-13,0)"
         id="g4298">
        <circle
           cx="3"
           cy="0"
           r="0.8"
           id="circle4300" />
        <circle
           cx="6.5"
           cy="0"
           r="0.8"
           id="circle4302" />
        <circle
           cx="10"
           cy="0"
           r="0.8"
           id="circle4304" />
      </g>
    </marker>
    <marker
       style="overflow:visible"
       id="StopS"
       refX="0.0"
       refY="0.0"
       orient="auto"
       inkscape:stockid="StopS">
      <path
         transform="scale(0.2)"
         style="fill:none;fill-opacity:0.75000000;fill-rule:evenodd;stroke:#000000;stroke-width:1.0pt"
         d="M 0.0,5.65 L 0.0,-5.65"
         id="path4229" />
    </marker>
    <marker
       style="overflow:visible"
       id="Arrow2Sstart"
       refX="0.0"
       refY="0.0"
       orient="auto"
       inkscape:stockid="Arrow2Sstart">
      <path
         transform="scale(0.3) translate(-2.3,0)"
         d="M 8.7185878,4.0337352 L -2.2072895,0.016013256 L 8.7185884,-4.0017078 C 6.9730900,-1.6296469 6.9831476,1.6157441 8.7185878,4.0337352 z "
         style="font-size:12.0;fill-rule:evenodd;stroke-width:0.62500000;stroke-linejoin:round"
         id="path4146" />
    </marker>
    <marker
       style="overflow:visible"
       id="DiamondS"
       refX="0.0"
       refY="0.0"
       orient="auto"
       inkscape:stockid="DiamondS">
      <path
         transform="scale(0.2)"
         style="fill-rule:evenodd;stroke:#000000;stroke-width:1.0pt;marker-start:none"
         d="M 0,-7.0710768 L -7.0710894,0 L 0,7.0710589 L 7.0710462,0 L 0,-7.0710768 z "
         id="path4202" />
    </marker>
    <marker
       orient="auto"
       refY="0"
       refX="0"
       id="RazorWire"
       inkscape:stockid="RazorWire">
       style=&quot;overflow:visible&quot;&gt;
      <path
   d="M 0.022727273,-0.74009011 L 0.022727273,0.69740989 L -7.7585227,3.0099099 L 10.678977,3.0099099 L 3.4914773,0.69740989 L 3.4914773,-0.74009011 L 10.741477,-2.8963401 L -7.7272727,-2.8963401 L 0.022727273,-0.74009011 z "
   style="fill:#808080;fill-opacity:1;fill-rule:evenodd;stroke:#000000;stroke-width:0.1pt"
   transform="scale(0.8,0.8)"
   id="path4286" />
</marker>
    <inkscape:perspective
       id="perspective5233"
       inkscape:persp3d-origin="16 : 10.666667 : 1"
       inkscape:vp_z="32 : 16 : 1"
       inkscape:vp_y="0 : 1000 : 0"
       inkscape:vp_x="0 : 16 : 1"
       sodipodi:type="inkscape:persp3d" />
    <inkscape:perspective
       id="perspective5412"
       inkscape:persp3d-origin="250 : 166.66667 : 1"
       inkscape:vp_z="500 : 250 : 1"
       inkscape:vp_y="0 : 1000 : 0"
       inkscape:vp_x="0 : 250 : 1"
       sodipodi:type="inkscape:persp3d" />
    <inkscape:perspective
       id="perspective5571"
       inkscape:persp3d-origin="202.85715 : 136.19048 : 1"
       inkscape:vp_z="405.71429 : 204.28572 : 1"
       inkscape:vp_y="0 : 1000 : 0"
       inkscape:vp_x="0 : 204.28572 : 1"
       sodipodi:type="inkscape:persp3d" />
    <inkscape:perspective
       id="perspective6552"
       inkscape:persp3d-origin="64 : 42.666667 : 1"
       inkscape:vp_z="128 : 64 : 1"
       inkscape:vp_y="0 : 1000 : 0"
       inkscape:vp_x="0 : 64 : 1"
       sodipodi:type="inkscape:persp3d" />
    <inkscape:perspective
       id="perspective4729"
       inkscape:persp3d-origin="0.5 : 0.33333333 : 1"
       inkscape:vp_z="1 : 0.5 : 1"
       inkscape:vp_y="0 : 1000 : 0"
       inkscape:vp_x="0 : 0.5 : 1"
       sodipodi:type="inkscape:persp3d" />
  </defs>
  <g
     id="g1327">
    <path
       d="M 66.275,1.768 C 24.94,1.768 1.704,23.139 1.704,66.804 L 1.704,516.927 C 1.704,557.771 22.599,579.156 63.896,579.156 L 515.92,579.156 C 557.227,579.156 578.149,558.841 578.149,516.927 L 578.149,66.804 C 578.149,24.203 557.227,1.768 514.628,1.768 C 514.624,1.768 66.133,1.625 66.275,1.768 z "
       style="fill:#111;stroke:#eee;stroke-width:3.40799999"
       id="path1329" />
  </g>
  <g
     id="g7"
     inkscape:output_extension="org.inkscape.output.svg.inkscape"
     inkscape:version="0.46"
     sodipodi:docname="waste_bin.svg"
     sodipodi:version="0.32">
    <g
       id="g9">
      <path
         style="fill:#ffffff"
         inkscape:connector-curvature="0"
         d="m 391.191,274.906 c 0,30.612 -62.259,80.063 -115.345,80.063 -109.577,0 -84.586,-37.133 -84.586,-67.745 0,-30.612 31.5,-43.111 84.586,-43.111 53.086,0 115.345,-24.635 115.345,30.793 z"
         id="path11" />
      <path
         style="fill:#ffffff"
         inkscape:connector-curvature="0"
         d="m 485.755,450.151 c -1.356,43.707 -160.565,74.237 -268.253,70.9 C 109.815,517.714 109.172,484.06 95.786,438.066 79.99,383.79 187.057,383.494 293.223,364.97 c 114.225,-19.93 193.886,41.474 192.532,85.181 z"
         id="path13" />
      <path
         style="fill:#ffffff"
         inkscape:connector-curvature="0"
         d="m 356.777,196.638 c 0,20.374 -34.926,22.456 -64.157,22.456 -29.233,0 -57.602,-1.562 -64.158,-20.852 -22.897,-67.365 34.925,-52.93 64.158,-52.93 29.232,0 64.157,0 64.157,51.326 z"
         id="path15" />
      <path
         style="fill:#ffffff"
         inkscape:connector-curvature="0"
         d="m 329.114,89.174 c 0,16.831 -11.848,30.475 -26.465,30.475 -14.616,0 -51.764,-7.228 -51.764,-24.059 0,-16.831 37.147,-36.891 51.764,-36.891 14.618,0 26.465,13.644 26.465,30.475 z"
         id="path17" />
    </g>
  </g>
</svg>

<svg width="580" height="580" viewBox="0 0 580 580" fill="none" xmlns="http://www.w3.org/2000/svg">
<g clip-path="url(#clip0)">
<path d="M66.2751 1.76802C24.9401 1.76802 1.7041 23.139 1.7041 66.804V516.927C1.7041 557.771 22.5991 579.156 63.8961 579.156H515.92C557.227 579.156 578.149 558.841 578.149 516.927V66.804C578.149 24.203 557.227 1.76802 514.628 1.76802C514.624 1.76802 66.1331 1.62502 66.2751 1.76802Z" fill="#111111" stroke="#EEEEEE" stroke-width="3.408"/>
<path d="M391.191 274.906C391.191 305.518 328.932 354.969 275.846 354.969C166.269 354.969 191.26 317.836 191.26 287.224C191.26 256.612 222.76 244.113 275.846 244.113C328.932 244.113 391.191 219.478 391.191 274.906V274.906Z" fill="white"/>
<path d="M485.755 450.151C484.399 493.858 325.19 524.388 217.502 521.051C109.815 517.714 109.172 484.06 95.7862 438.066C79.9902 383.79 187.057 383.494 293.223 364.97C407.448 345.04 487.109 406.444 485.755 450.151Z" fill="white"/>
<path d="M356.777 196.638C356.777 217.012 321.851 219.094 292.62 219.094C263.387 219.094 235.018 217.532 228.462 198.242C205.565 130.877 263.387 145.312 292.62 145.312C321.852 145.312 356.777 145.312 356.777 196.638V196.638Z" fill="white"/>
<path d="M329.114 89.174C329.114 106.005 317.266 119.649 302.649 119.649C288.033 119.649 250.885 112.421 250.885 95.59C250.885 78.759 288.032 58.699 302.649 58.699C317.267 58.699 329.114 72.343 329.114 89.174Z" fill="white"/>
</g>
<defs>
<clipPath id="clip0">
<path d="M0 0H580V580H0V0Z" fill="white"/>
</clipPath>
</defs>
</svg>
